src/icons/icons_set_01/038-pin-contour.svg

<svg height="50" viewBox="0 0 50 50" width="50" xmlns="http://www.w3.org/2000/svg"><g transform="translate(9.496548 2.995)"><path d="m23.490348 31.0281359c3.7200844-6.2060681 5.0321299-9.2377569 5.3616689-13.7869998.583676-8.00208481-4.6627007-14.43886921-11.8859907-15.07495708-4.397463-.38757301-8.18240826 1.10229716-10.92868158 3.87768876-2.7377052 2.79040671-4.20594503 6.42819642-3.90205874 10.95295862.3198698 4.7636305 1.92648678 8.5726763 5.35460681 14.1303861 2.67526191 4.3360356 5.30796681 7.7929501 8.13542461 10.5298976 2.5094705-2.3411909 4.971364-5.7904365 7.8650307-10.6289742zm-7.7518397 10.8768391h-.2500595v1l.2500595-.2696642zm0 2h-.2500595c-.2521755 0-.4950404-.0952749-.6799502-.2667417-3.1847149-2.9531852-6.08773085-6.7071172-9.02076797-11.4609521-3.58492984-5.8119317-5.30107586-9.8806543-5.64795021-15.0464476-.34362166-5.116408 1.34658863-9.30416368 4.47292132-12.49066612 3.15646231-3.18994456 7.52033796-4.90769945 12.52884086-4.46627207 8.3311211.73364424 14.3670118 8.13908389 13.7052113 17.21223679-.3587358 4.9523033-1.7687664 8.2104024-5.6404641 14.6693999-3.1763186 5.3111645-5.8584487 9.0150298-8.7360307 11.5335513-.1753555.1903855-.4276432.3158916-.7317508.3158916z"/><path d="m5.25022931 15.280776.04030529-.6924005c.4687844-5.05276591 4.67524756-8.9647353 9.9259043-9.15890021 5.2994264-.19596837 9.9081331 3.73471285 10.4755207 8.90270801.9497411 8.5020607-7.1496774 14.3521852-14.5683615 10.9439063-3.62768363-1.6736043-6.04719885-5.4095221-5.87336879-9.9953136zm2.03671095-.5046756c-.37592961 4.031591 1.61662289 7.2732156 4.67303834 8.683271 6.0035609 2.7581443 12.5213322-1.9495731 11.7441353-8.9070381-.452593-4.1223866-4.1568074-7.28164289-8.4137671-7.12422407-4.1510902.15350386-7.46941405 3.15002537-7.97596442 7.05369297z"/></g></svg>

<?xml version="1.0" encoding="UTF-8"?>
<svg width="50px" height="50px" viewBox="0 0 50 50" version="1.1" xmlns="http://www.w3.org/2000/svg" xmlns:xlink="http://www.w3.org/1999/xlink">
    <!-- Generator: Sketch 52.2 (67145) - http://www.bohemiancoding.com/sketch -->
    <title>038-pin-contour</title>
    <desc>Created with Sketch.</desc>
    <g id="038-pin-contour" stroke="none" stroke-width="1" fill="none" fill-rule="evenodd">
        <g id="Group" transform="translate(9.496548, 2.995000)" fill="#000000" fill-rule="nonzero">
            <g id="050-pin">
                <g id="ICONSET-01">
                    <g id="050-pin">
                        <path d="M23.490348,31.0281359 C27.2104324,24.8220678 28.5224779,21.790379 28.8520169,17.2411361 C29.4356929,9.23905129 24.1893162,2.80226689 16.9660262,2.16617902 C12.5685632,1.77860601 8.78361794,3.26847618 6.03734462,6.04386778 C3.29963942,8.83427449 1.83139959,12.4720642 2.13528588,16.9968264 C2.45515568,21.7604569 4.06177266,25.5695027 7.48989269,31.1272125 C10.1651546,35.4632481 12.7978595,38.9201626 15.6253173,41.6571101 C18.1347878,39.3159192 20.5966813,35.8666736 23.490348,31.0281359 Z M15.7385083,41.904975 L15.4884488,41.904975 L15.4884488,42.904975 L15.7385083,42.6353108 L15.7385083,41.904975 Z M15.7385083,43.904975 L15.4884488,43.904975 C15.2362733,43.904975 14.9934084,43.8097001 14.8084986,43.6382333 C11.6237837,40.6850481 8.72076775,36.9311161 5.78773063,32.1772812 C2.20280079,26.3653495 0.486654767,22.2966269 0.139780419,17.1308336 C-0.20384124,12.0144256 1.48636905,7.82666992 4.61270174,4.64016748 C7.76916405,1.45022292 12.1330397,-0.267531966 17.1415426,0.173895412 C25.4726637,0.907539649 31.5085544,8.3129793 30.8467539,17.3861322 C30.4880181,22.3384355 29.0779875,25.5965346 25.2062898,32.0555321 C22.0299712,37.3666966 19.3478411,41.0705619 16.4702591,43.5890834 C16.2949036,43.7794689 16.0426159,43.904975 15.7385083,43.904975 Z" id="Shape"></path>
                        <path d="M5.25022931,15.280776 L5.2905346,14.5883755 C5.759319,9.53560959 9.96578216,5.6236402 15.2164389,5.42947529 C20.5158653,5.23350692 25.124572,9.16418814 25.6919596,14.3321833 C26.6417007,22.834244 18.5422822,28.6843685 11.1235981,25.2760896 C7.49591447,23.6024853 5.07639925,19.8665675 5.25022931,15.280776 Z M7.28694026,14.7761004 C6.91101065,18.8076914 8.90356315,22.049316 11.9599786,23.4593714 C17.9635395,26.2175157 24.4813108,21.5097983 23.7041139,14.5523333 C23.2515209,10.4299467 19.5473065,7.27069041 15.2903468,7.42810923 C11.1392566,7.58161309 7.82093275,10.5781346 7.31438238,14.4818022 L7.28694026,14.7761004 Z" id="Shape-path"></path>
                    </g>
                </g>
            </g>
        </g>
    </g>
</svg>
